lib/logo_updates/nrk-logo-nrk-p1-with-bg.svg

<svg width="224" height="84" viewBox="0 0 224 84" fill="none" xmlns="http://www.w3.org/2000/svg">
<rect width="224" height="84" fill="#114F9D"/>
<path d="M20 63V21.0038H33.7802V63H20ZM52.5283 27.6877L60.4532 63H45.3721L35.9092 21.0038H44.3676C46.3072 20.9786 48.1892 21.6624 49.6607 22.9264C51.1347 24.1373 52.1473 25.8184 52.5283 27.6877ZM62.5233 63V21.0038H76.3035V63H62.5233ZM86.7116 36.9743C85.2267 36.9888 83.7656 36.6003 82.4839 35.8504C81.2193 35.1194 80.1688 34.0689 79.438 32.8041C78.6872 31.5222 78.2986 30.0607 78.3134 28.5751C78.2964 27.0986 78.6853 25.6458 79.438 24.3755C80.1766 23.1245 81.2259 22.0853 82.4839 21.3588C83.766 20.6098 85.2269 20.2213 86.7116 20.2348C88.1877 20.2189 89.6399 20.6078 90.9108 21.3588C92.1562 22.0917 93.1943 23.13 93.9271 24.3755C94.6789 25.6462 95.0677 27.0987 95.0517 28.5751C95.0655 30.0605 94.6769 31.5218 93.9271 32.8041C93.202 34.0633 92.1627 35.113 90.9108 35.8504C89.6398 36.6029 88.1866 36.9918 86.7097 36.9743H86.7116ZM97.1807 63V21.0038H110.962V63H97.1807ZM128.408 43.9538C128.447 43.9946 128.742 44.4776 129.295 45.403C129.848 46.3283 130.567 47.5114 131.454 48.952C132.341 50.392 133.277 51.9199 134.262 53.536C135.247 55.1521 136.174 56.6803 137.043 58.1202C137.908 59.5602 138.894 61.1867 140 63H124.859C123.912 61.4621 123.055 60.0721 122.286 58.83C121.517 57.5878 120.7 56.2471 119.833 54.8077C118.965 53.3698 118.107 51.9699 117.259 50.6081C116.41 49.2464 115.681 48.0536 115.071 47.0297C114.459 46.0051 114.035 45.3149 113.799 44.9594C113.214 44.0771 112.868 43.058 112.794 42.0019C112.853 40.9883 113.179 40.0084 113.74 39.1619C113.976 38.7676 114.41 38.0675 115.041 37.062C115.672 36.0564 116.411 34.8637 117.259 33.4835C118.106 32.1034 118.965 30.6936 119.833 29.2543C120.702 27.815 121.519 26.4643 122.286 25.2025C123.056 23.9419 123.914 22.5421 124.859 21.0029H140L128.289 40.1082C127.926 40.6755 127.722 41.3292 127.697 42.0019C127.736 42.7081 127.983 43.3871 128.406 43.9538H128.408Z" fill="white"/>
<path d="M184.508 26.4467C183.781 25.3247 182.848 24.3509 181.758 23.5771C180.543 22.7265 179.193 22.0866 177.766 21.6844C176.033 21.206 174.24 20.9773 172.443 21.0052H156V62.999H162.21V47.9166H172.916C175.332 47.9533 177.716 47.3623 179.836 46.2014C181.866 45.0756 183.553 43.4194 184.715 41.4096C185.961 39.1915 186.585 36.6779 186.519 34.1346C186.525 32.7603 186.366 31.3902 186.046 30.0535C185.739 28.7736 185.219 27.5545 184.508 26.4467ZM179.008 39.1926C178.213 40.4399 177.043 41.4029 175.666 41.9429C173.995 42.5752 172.217 42.8766 170.432 42.8301H162.21V26.1509H171.26C172.988 26.0856 174.708 26.4192 176.287 27.1258C177.543 27.7326 178.57 28.7282 179.215 29.9649C179.898 31.3519 180.233 32.8847 180.191 34.4304C180.259 36.0982 179.849 37.7506 179.008 39.1926Z" fill="#B2CFF5"/>
<path d="M201.838 21.0052C200.891 21.4784 199.994 21.9417 199.146 22.3952C198.298 22.8486 197.471 23.2724 196.663 23.6667C195.853 24.061 195.035 24.4554 194.208 24.8497C193.38 25.244 192.532 25.5989 191.664 25.9143C190.797 26.2311 189.871 26.5462 188.885 26.8597L190.186 31.8871C191.368 31.5322 192.443 31.1773 193.409 30.8225C194.355 30.4764 195.283 30.0816 196.189 29.6396C197.077 29.2059 197.964 28.7326 198.85 28.22L198.881 28.2023V62.9999H205.031V21.0062L201.838 21.0052Z" fill="#B2CFF5"/>
</svg>

<svg xmlns="http://www.w3.org/2000/svg" viewBox="0 0 224 84"><path fill="#114F9D" d="M0 0h224v84H0z"/><path fill="#fff" d="M20 63V21.004h13.78V63H20Zm32.528-35.312L60.453 63h-15.08l-9.464-41.996h8.459a7.965 7.965 0 0 1 5.293 1.922 8.31 8.31 0 0 1 2.867 4.762ZM62.523 63V21.004h13.78V63h-13.78Zm24.189-26.026a8.213 8.213 0 0 1-4.228-1.124 8.336 8.336 0 0 1-3.046-3.046 8.206 8.206 0 0 1-1.125-4.229 8.056 8.056 0 0 1 1.125-4.2 8.437 8.437 0 0 1 3.046-3.016 8.233 8.233 0 0 1 4.228-1.124 8.083 8.083 0 0 1 4.199 1.124 8.504 8.504 0 0 1 3.016 3.016 8.075 8.075 0 0 1 1.125 4.2 8.226 8.226 0 0 1-1.125 4.23 8.4 8.4 0 0 1-3.016 3.045 8.059 8.059 0 0 1-4.201 1.124h.002ZM97.18 63V21.004h13.781V63H97.181Zm31.227-19.046c.039.04.334.524.887 1.449.553.925 1.272 2.108 2.159 3.549a1143.28 1143.28 0 0 1 5.589 9.168A854.89 854.89 0 0 0 140 63h-15.141c-.947-1.538-1.804-2.928-2.573-4.17a388.795 388.795 0 0 1-2.453-4.022 355.984 355.984 0 0 0-2.574-4.2 210.645 210.645 0 0 1-2.188-3.578 62.13 62.13 0 0 0-1.272-2.07 6.127 6.127 0 0 1-1.005-2.958 5.745 5.745 0 0 1 .946-2.84c.236-.394.67-1.094 1.301-2.1.631-1.006 1.37-2.198 2.218-3.578.847-1.38 1.706-2.79 2.574-4.23.869-1.439 1.686-2.79 2.453-4.052.77-1.26 1.628-2.66 2.573-4.2H140l-11.711 19.106a3.773 3.773 0 0 0-.592 1.894c.039.706.286 1.385.709 1.952h.002Z"/><path fill="#B2CFF5" d="M184.508 26.447a10.563 10.563 0 0 0-2.75-2.87 13.21 13.21 0 0 0-3.992-1.893 18.904 18.904 0 0 0-5.323-.679H156V63h6.21V47.917h10.706c2.416.036 4.8-.555 6.92-1.716a12.815 12.815 0 0 0 4.879-4.791 14.108 14.108 0 0 0 1.804-7.275 17.207 17.207 0 0 0-.473-4.081 11.753 11.753 0 0 0-1.538-3.607Zm-5.5 12.746a6.989 6.989 0 0 1-3.342 2.75 13.777 13.777 0 0 1-5.234.887h-8.222V26.15h9.05a11.265 11.265 0 0 1 5.027.976 6.483 6.483 0 0 1 2.928 2.839 9.523 9.523 0 0 1 .976 4.465 8.745 8.745 0 0 1-1.183 4.763ZM201.838 21.005c-.947.473-1.844.937-2.692 1.39-.848.454-1.675.877-2.483 1.272-.81.394-1.628.788-2.455 1.183a28.75 28.75 0 0 1-2.544 1.064c-.867.317-1.793.632-2.779.946l1.301 5.027a56.662 56.662 0 0 0 3.223-1.064c.946-.347 1.874-.741 2.78-1.183a42.985 42.985 0 0 0 2.661-1.42l.031-.018V63h6.15V21.006h-3.193Z"/></svg>
